symbols/web/room_service/materialsymbolsoutlined/room_service_wght100gradN25_48px.svg

<svg xmlns="http://www.w3.org/2000/svg" height="48" width="48"><path d="M7.2 33.75v-1.1h33.65v1.1Zm1.3-4.35v.3q0-6.2 4.175-10.275T22.9 14.65V13.4q0-.45.325-.775T24 12.3q.45 0 .775.325t.325.775v1.25q6 .7 10.225 4.775T39.55 29.7v-.3Zm1.25-1.1H38.3q-.35-5.15-4.575-8.8Q29.5 15.85 24 15.85q-5.55 0-9.725 3.675T9.75 28.3Zm14.3 0Z"/></svg>

<svg xmlns="http://www.w3.org/2000/svg" height="48" width="48"><path d="M7.2 33.75V32.65H40.85V33.75ZM8.5 29.4V29.7Q8.5 23.5 12.675 19.425Q16.85 15.35 22.9 14.65V13.4Q22.9 12.95 23.225 12.625Q23.55 12.3 24 12.3Q24.45 12.3 24.775 12.625Q25.1 12.95 25.1 13.4V14.65Q31.1 15.35 35.325 19.425Q39.55 23.5 39.55 29.7V29.4ZM9.75 28.3H38.3Q37.95 23.15 33.725 19.5Q29.5 15.85 24 15.85Q18.45 15.85 14.275 19.525Q10.1 23.2 9.75 28.3ZM24.05 28.3Q24.05 28.3 24.05 28.3Q24.05 28.3 24.05 28.3Q24.05 28.3 24.05 28.3Q24.05 28.3 24.05 28.3Z"/></svg>
